public/marquee_icons/1.svg

<svg width="67" height="58" viewBox="0 0 67 58" fill="none" xmlns="http://www.w3.org/2000/svg">
<path d="M18.5325 32.6051C19.4328 32.7959 22.4154 32.6549 22.8664 33.0106C23.4294 33.4544 23.7848 35.2037 23.8644 35.9059C27.9442 35.7646 32.2492 35.959 36.3419 35.8771C37.6498 35.851 40.4504 35.9706 41.6114 35.7851C41.241 36.5261 40.7357 37.9901 40.3746 38.8525C40.2379 39.2285 40.0495 39.8029 39.7896 40.0855C39.3419 40.2742 22.7048 40.2054 20.7693 40.1865C20.4844 39.5509 18.5047 32.9563 18.5325 32.6051Z" fill="white" fill-opacity="0.69"/>
<path d="M44.0026 5.72266C44.1881 5.73481 44.4391 5.77105 44.5935 5.87568C47.4084 7.78148 50.4102 9.64469 53.1948 11.5727L56.3211 13.7119C56.8596 14.0776 57.4022 14.4954 57.9667 14.8117C57.8104 15.1931 57.5367 16.2142 57.3974 16.6643L56.1628 20.6444C56.0734 20.9342 55.7724 22.0315 55.6372 22.2252C55.2509 22.2574 54.9697 21.8917 54.7022 21.637C54.4237 21.3894 54.1241 21.0524 53.8415 20.8184C51.8329 19.156 52.0887 18.9669 52.9566 16.626C52.5603 16.3958 52.1784 16.1353 51.7994 15.8774C48.6706 13.7474 45.4912 11.6922 42.3766 9.54217C41.7695 9.1231 41.1848 8.68349 40.5244 8.35042C41.0076 7.80052 43.3234 6.11135 44.0026 5.72266Z" fill="white" fill-opacity="0.69"/>
<path d="M19.8152 10.2998C19.8491 10.3173 19.9875 10.3862 19.9978 10.4175C20.2688 11.2387 21.173 13.7085 21.1189 14.4682C20.9101 14.8364 18.5754 16.2906 18.036 16.6486C18.3198 17.7195 18.9443 19.5392 19.2936 20.6528C20.22 23.586 21.0988 26.534 21.9297 29.4957C20.6465 29.4727 19.363 29.4652 18.0796 29.473C17.7791 29.4939 17.6661 29.5415 17.4491 29.3892C16.9192 28.1272 13.0723 15.0614 13.1246 14.8723C13.2665 14.358 19.068 10.783 19.8152 10.2998Z" fill="white" fill-opacity="0.69"/>
<path d="M35.2465 0C35.8721 0.040917 40.7859 3.2137 41.0919 3.73815C40.991 4.02303 38.0073 6.20362 37.5672 6.41936C36.8831 6.01217 36.0426 5.45482 35.4007 4.99617C33.0544 6.7942 30.1477 8.42665 27.7551 10.1854C26.5257 11.0457 25.1174 11.922 23.8461 12.7373C23.5039 11.258 23.0775 9.78043 22.748 8.30154C24.0816 7.09956 27.4808 5.075 29.1192 4.007C30.8453 2.88173 33.5534 0.915716 35.2465 0Z" fill="white" fill-opacity="0.69"/>
<path d="M51.0474 22.8923C51.3879 22.96 54.0699 25.4073 54.5278 25.8238C54.3954 26.4779 54.0241 27.5638 53.8187 28.2242L52.3561 32.8739L50.9878 37.3215C50.7327 38.1519 50.384 39.3981 50.0329 40.1519C49.19 40.2409 47.5798 40.1916 46.6775 40.1882C46.0995 40.1906 43.9598 40.2274 43.5674 40.0409C43.5371 39.7291 44.9097 36.6392 45.1547 36.1764C45.4834 35.5554 46.1467 36.0495 46.827 35.8657C47.0458 35.6905 47.1269 35.3578 47.2071 35.0832C48.2622 31.4733 49.4584 27.904 50.5632 24.309C50.7102 23.8307 50.8427 23.3498 51.0474 22.8923Z" fill="white" fill-opacity="0.69"/>
<path d="M0.844949 46.6511C1.6809 46.671 2.51712 46.6792 3.35328 46.6758C5.23962 46.6652 7.42559 46.5634 8.45804 48.5901C9.36675 50.3739 8.6428 52.625 6.777 53.4281C5.84932 53.8273 5.00845 53.8406 4.00767 53.8834C3.69453 53.8826 3.19288 53.837 2.86876 53.8163C2.98342 55.1794 2.88418 56.5859 3.01161 57.8345C2.38492 57.8066 0.625314 57.9096 0.150212 57.7184C-0.0496293 57.3904 -0.0273789 46.9874 0.0852368 46.7829C0.285693 46.6403 0.590437 46.6605 0.844949 46.6511ZM2.86725 51.7366C3.69167 51.6803 4.84649 51.8296 5.41735 51.4178C5.58095 51.266 5.71554 51.1525 5.84468 50.9691C6.29527 48.4051 4.62849 48.9095 2.9267 48.7379C2.89141 49.6565 3.03659 50.8631 2.86725 51.7366Z" fill="white" fill-opacity="0.69"/>
<path d="M36.2932 49.9811C37.7195 49.8476 37.707 50.2447 38.6899 50.4404C38.7824 50.3138 38.8479 50.2374 38.9537 50.1216C39.2029 50.0659 41.1747 50.085 41.5673 50.0826C41.6305 52.5947 41.5911 55.2406 41.6457 57.8004C41.0117 57.8395 39.114 57.9596 38.7291 57.5659L38.7288 57.4788C38.5814 57.4004 38.3492 57.5869 38.1594 57.6454C37.8296 57.7346 37.2851 57.9356 36.946 57.9444C32.264 58.066 31.7823 50.642 36.2932 49.9811ZM35.9148 53.9887C35.9266 54.4057 36.1097 54.7995 36.4208 55.0773C36.774 55.3927 37.2543 55.5251 37.7192 55.4354C38.3206 55.3192 38.7932 54.8528 38.9174 54.253C39.0415 53.6532 38.7928 53.0376 38.2869 52.6923C37.9244 52.4448 37.4725 52.3665 37.0479 52.4775C36.3645 52.656 35.8946 53.2826 35.9148 53.9887Z" fill="white" fill-opacity="0.69"/>
<path d="M53.4056 49.9182C55.5403 49.6824 57.6288 51.2554 57.9332 53.4091C58.082 54.4526 57.8001 55.5118 57.1524 56.3436C56.2992 57.455 55.2072 57.8178 53.8892 57.9882C52.9559 58.0786 51.6085 57.6364 50.8592 57.0531C50.015 56.394 49.468 55.4258 49.3392 54.3626C49.2601 53.7233 49.3381 53.1711 49.5588 52.5756C50.2305 50.7635 51.6418 50.1343 53.4056 49.9182ZM52.4274 54.9899C53.0368 55.4682 53.2398 55.5405 54.021 55.4882C54.5253 55.2531 54.797 55.1159 55.0072 54.561C55.1703 54.1265 55.1505 53.6446 54.9526 53.2248C54.5902 52.4625 53.9718 52.4024 53.2376 52.4234C52.0916 52.9605 51.9483 53.8766 52.4274 54.9899Z" fill="white" fill-opacity="0.69"/>
<path d="M13.0086 49.9089C15.4914 49.7311 17.251 51.4991 17.3761 53.8892C17.4445 55.1962 16.0171 54.8262 15.1033 54.8261C13.9751 54.8346 12.847 54.8306 11.7189 54.814C12.5947 56.2785 14.057 56.3748 15.2319 55.1893L16.0071 55.9475C16.2863 56.2145 16.5879 56.3914 16.5322 56.7945C16.0886 57.3945 15.0695 57.7458 14.3586 57.8799C11.7505 58.4015 8.80007 56.6398 9.08338 53.71C9.31694 51.2951 10.7725 50.2669 13.0086 49.9089ZM11.6783 53.0352C12.407 53.0592 13.1083 53.0282 13.8155 53.0466C14.0673 53.0533 14.3664 53.0914 14.5756 52.9665C14.7011 52.6302 14.4253 52.384 14.2204 52.1139C13.6694 51.9415 13.4327 51.8867 12.8372 51.9458C12.2596 52.2457 12.0693 52.5346 11.6783 53.0352Z" fill="white" fill-opacity="0.69"/>
<path d="M22.7878 49.9875C23.4258 49.8034 24.5341 50.2501 25.0281 50.6642C25.4432 51.0101 25.7477 51.4703 25.9039 51.9876C26.2055 52.9989 26.0066 56.4581 26.1127 57.8217C25.1635 57.8162 24.2143 57.817 23.2652 57.8243C23.1029 56.2785 23.4989 54.3829 23.0322 52.8795C22.7892 52.0966 21.9108 52.2971 21.3618 52.5939C20.8912 53.2329 21.1497 56.7689 21.1808 57.8222C20.1813 57.8101 19.1817 57.8123 18.1822 57.8285C18.1577 57.0093 18.1929 50.5487 18.3009 50.1866C18.6629 50.0156 20.2566 50.1098 20.7282 50.1008C20.9122 50.0972 20.9812 50.3079 21.1311 50.4828C21.4841 50.4473 21.888 50.0925 22.7878 49.9875Z" fill="white" fill-opacity="0.69"/>
<path d="M44.0153 50.1239C43.9395 49.2458 44.2168 47.9103 44.8252 47.2904C46.4485 45.6362 48.5137 46.042 50.2165 47.0843C49.8888 47.4623 48.7227 48.867 48.2384 48.7631C46.9398 48.4846 46.9065 48.6616 46.7581 50.1349C47.5043 50.0923 48.252 50.0806 48.9993 50.0998C49.0033 50.8786 49.0173 51.6794 49.0007 52.4562C48.2563 52.4173 47.5165 52.4175 46.7714 52.4124C46.9258 54.1235 46.7111 56.2453 46.8524 57.8634C46.3101 57.8307 44.3083 57.8967 44.0119 57.7247C43.9795 57.6585 43.9195 57.5458 43.8961 57.4814C44.0376 56.6743 43.9806 54.2481 43.9519 53.3514L43.9935 52.4836C43.7116 52.4682 42.6634 52.4522 42.4715 52.3722C42.3161 52.0445 42.2468 50.3478 42.4587 50.1177C42.7902 50.0349 43.6243 50.109 44.0153 50.1239Z" fill="white" fill-opacity="0.69"/>
<path d="M58.2252 50.0895C59.2217 50.1136 60.2701 50.0954 61.2747 50.1042C61.7573 50.5756 62.1668 51.4306 62.4487 52.0427C63.5789 49.3809 63.9755 50.1657 66.5042 50.0809C66.1138 50.7164 65.7098 51.3435 65.2921 51.9618C64.2949 53.4136 63.624 53.5484 64.8088 55.0341C65.1535 55.4666 66.4401 57.32 66.4871 57.7085C66.3513 57.8516 66.4148 57.8093 66.1636 57.8241C63.3407 57.8303 63.609 58.2426 62.2501 55.6946C60.8318 58.5986 60.7492 57.5823 58.0737 57.8381C58.572 56.8298 60.0339 54.791 60.7567 53.8724C60.15 53.0653 58.6361 50.9342 58.2252 50.0895Z" fill="white" fill-opacity="0.69"/>
<path d="M29.6917 46.928C30.1032 46.8938 30.8016 46.9274 31.2351 46.9364C31.2416 47.8004 31.2921 49.3663 31.1633 50.1556C31.6809 50.0784 32.3635 50.0824 32.8852 50.103C32.9008 50.8929 32.8997 51.6832 32.8819 52.4731C32.3301 52.4295 31.7465 52.4115 31.1912 52.3858C31.1939 53.8998 31.1648 56.3758 31.3088 57.8373C30.9072 57.8211 30.4448 57.8295 30.0379 57.8279L28.2941 57.8084C28.2483 57.1215 28.2926 56.1641 28.3016 55.4565C28.3136 54.5095 28.2406 53.3428 28.3648 52.433C27.7912 52.43 27.2177 52.4365 26.6444 52.4528L26.6401 50.0641C27.1638 50.1066 27.8556 50.099 28.3928 50.1076C28.2967 49.6237 28.2465 47.5898 28.3556 47.1318C28.6108 46.8691 29.2926 46.9339 29.6917 46.928Z" fill="white" fill-opacity="0.69"/>
<path d="M53.1377 21.7654C53.5747 21.7109 53.974 22.0194 54.0313 22.4561C54.0886 22.8929 53.7829 23.294 53.3464 23.3542C52.906 23.415 52.5003 23.1056 52.4425 22.6648C52.3846 22.2241 52.6966 21.8204 53.1377 21.7654Z" fill="white" fill-opacity="0.69"/>
<path d="M43.8963 57.4812C43.826 56.9433 43.7213 53.6974 43.9521 53.3513C43.9808 54.248 44.0378 56.6742 43.8963 57.4812Z" fill="white" fill-opacity="0.69"/>
</svg>

<svg xmlns="http://www.w3.org/2000/svg" width="67" height="58" fill="none"><path fill="#fff" fill-opacity=".69" d="M18.533 32.605c.9.19 3.882.05 4.333.406.563.443.919 2.193.998 2.895 4.08-.141 8.385.053 12.478-.029 1.308-.026 4.108.094 5.27-.092-.371.741-.876 2.205-1.237 3.068-.137.375-.325.95-.585 1.233-.448.188-17.085.12-19.02.1-.286-.635-2.265-7.23-2.238-7.58M44.003 5.723c.185.012.436.048.59.153 2.815 1.905 5.817 3.769 8.602 5.697l3.126 2.139c.539.366 1.081.783 1.646 1.1-.157.381-.43 1.402-.57 1.852l-1.234 3.98c-.09.29-.39 1.388-.526 1.581-.386.032-.667-.333-.935-.588-.278-.248-.578-.585-.86-.819-2.01-1.662-1.753-1.851-.885-4.192-.397-.23-.779-.49-1.158-.749-3.128-2.13-6.308-4.185-9.422-6.335-.608-.419-1.192-.859-1.853-1.192.484-.55 2.8-2.239 3.479-2.627M19.815 10.3c.034.017.172.086.183.117.27.822 1.175 3.292 1.12 4.051-.208.368-2.543 1.823-3.082 2.18.284 1.072.908 2.891 1.258 4.005a285 285 0 0 1 2.636 8.843q-1.925-.034-3.85-.023c-.3.02-.414.069-.63-.084-.53-1.262-4.378-14.328-4.325-14.517.142-.514 5.943-4.089 6.69-4.572M35.247 0c.625.04 5.539 3.214 5.845 3.738-.101.285-3.085 2.466-3.525 2.681a34 34 0 0 1-2.166-1.423c-2.347 1.798-5.253 3.43-7.646 5.19-1.23.86-2.638 1.736-3.909 2.551-.342-1.479-.768-2.957-1.098-4.435 1.334-1.202 4.733-3.227 6.371-4.295C30.845 2.882 33.553.916 35.246 0M51.047 22.892c.34.068 3.023 2.515 3.48 2.932-.132.654-.503 1.74-.708 2.4l-1.463 4.65-1.368 4.447c-.255.83-.604 2.077-.955 2.83-.843.09-2.453.04-3.355.037-.578.003-2.718.04-3.11-.147-.03-.312 1.342-3.402 1.587-3.865.328-.62.992-.127 1.672-.31.219-.175.3-.508.38-.783 1.055-3.61 2.251-7.179 3.356-10.774.147-.478.28-.96.484-1.417M.845 46.651q1.254.03 2.508.025c1.887-.01 4.073-.113 5.105 1.914.909 1.784.185 4.035-1.681 4.838-.928.4-1.769.413-2.77.455-.312 0-.814-.046-1.138-.067.114 1.363.015 2.77.143 4.018-.627-.027-2.387.076-2.862-.116-.2-.328-.177-10.73-.065-10.935.2-.143.505-.123.76-.132m2.022 5.086c.825-.057 1.98.093 2.55-.32.164-.151.299-.264.428-.448.45-2.564-1.217-2.06-2.918-2.231-.036.919.11 2.125-.06 2.999M36.293 49.981c1.426-.133 1.414.264 2.397.46.092-.127.158-.204.264-.32.249-.055 2.22-.036 2.613-.038.063 2.512.024 5.158.079 7.717-.634.04-2.532.16-2.917-.234v-.087c-.148-.079-.38.108-.57.166-.33.09-.874.29-1.213.3-4.682.121-5.164-7.303-.653-7.964m-.378 4.008a1.517 1.517 0 1 0 3.033-.086 1.517 1.517 0 0 0-3.033.086M53.406 49.918c2.134-.236 4.223 1.337 4.527 3.491a3.88 3.88 0 0 1-.78 2.935c-.854 1.111-1.946 1.474-3.264 1.644-.933.09-2.28-.352-3.03-.935a4.03 4.03 0 0 1-1.52-2.69 3.6 3.6 0 0 1 .22-1.787c.672-1.812 2.083-2.442 3.847-2.658m-.979 5.072c.61.478.813.55 1.594.498.504-.235.776-.372.986-.927a1.72 1.72 0 0 0-.054-1.336c-.363-.763-.981-.823-1.715-.802-1.146.538-1.29 1.454-.81 2.567M13.009 49.909c2.482-.178 4.242 1.59 4.367 3.98.069 1.307-1.359.937-2.273.937a152 152 0 0 1-3.384-.012c.876 1.465 2.338 1.56 3.513.375l.775.758c.28.267.58.444.525.847-.443.6-1.463.952-2.173 1.086-2.608.521-5.559-1.24-5.276-4.17.234-2.415 1.69-3.443 3.926-3.801m-1.33 3.126c.728.024 1.43-.007 2.137.012.251.006.55.044.76-.08.125-.337-.15-.583-.356-.853-.55-.172-.787-.227-1.383-.168-.577.3-.768.589-1.159 1.09M22.788 49.988c.638-.185 1.746.262 2.24.676.415.346.72.806.876 1.324.302 1.01.103 4.47.209 5.834q-1.425-.009-2.848.002c-.162-1.545.234-3.441-.233-4.944-.243-.783-1.121-.583-1.67-.286-.47.639-.212 4.175-.181 5.228q-1.5-.018-2.999.006c-.024-.819.01-7.28.119-7.641.362-.171 1.956-.077 2.427-.086.184-.004.253.207.403.382.353-.036.757-.39 1.657-.495M44.015 50.124c-.075-.878.202-2.214.81-2.834 1.624-1.654 3.689-1.248 5.392-.206-.328.378-1.494 1.783-1.979 1.68-1.298-.28-1.331-.102-1.48 1.37A27 27 0 0 1 49 50.1c.004.779.018 1.58.002 2.356-.745-.039-1.484-.039-2.23-.044.155 1.712-.06 3.833.081 5.451-.542-.032-2.544.034-2.84-.138-.032-.067-.093-.18-.116-.244.142-.807.085-3.233.056-4.13l.041-.867c-.281-.016-1.33-.032-1.522-.112-.155-.328-.224-2.024-.012-2.254.331-.083 1.165-.009 1.556.006M58.225 50.09c.997.024 2.045.005 3.05.014.482.472.892 1.327 1.174 1.939 1.13-2.662 1.526-1.877 4.055-1.962q-.585.953-1.212 1.88c-.997 1.453-1.668 1.587-.483 3.073.344.433 1.631 2.286 1.678 2.675-.136.143-.072.1-.323.115-2.823.006-2.555.419-3.914-2.13-1.418 2.905-1.5 1.888-4.176 2.144.498-1.008 1.96-3.047 2.683-3.966-.607-.807-2.12-2.938-2.532-3.782"/><path fill="#fff" fill-opacity=".69" d="M29.692 46.928c.411-.034 1.11 0 1.543.008.007.864.057 2.43-.072 3.22.518-.078 1.2-.074 1.722-.053q.024 1.185-.003 2.37c-.552-.044-1.135-.062-1.69-.087.002 1.514-.027 3.99.117 5.451-.402-.016-.864-.008-1.271-.01l-1.744-.019c-.046-.687-.001-1.644.008-2.352.012-.947-.061-2.113.063-3.023a51 51 0 0 0-1.72.02l-.005-2.389c.524.043 1.216.035 1.753.044-.096-.484-.146-2.518-.037-2.976.255-.263.937-.198 1.336-.204M53.138 21.765a.801.801 0 1 1 .198 1.59.801.801 0 0 1-.198-1.59M43.896 57.481c-.07-.538-.175-3.784.056-4.13.029.897.086 3.323-.056 4.13"/></svg>
